X:1
T:David Crosbie Miller  " "
M:C
L:1/8
Q:80
C:
S:March
K:HP
e2[ | \
{g}A2{GAG}A{d}c{gef}e2{gcd}ce | \
{gfg}f3/2e/2{g}fa{ef}e2c2 | \
{Gdc}d3/2c/2{g}df{g}e2{gcd}c3/2B/2 |
{gAGAG}A2{gcd}ce{gBd}B2{gef}e3/2c/2 | \
{g}A2{GAG}A{d}c{gef}e2{gcd}ce | \
{gfg}f3/2e/2{g}fg{ag}a2g3/2f/2 |
{gef}ea{cd}ce{gef}e3/2d/2{g}G{d}B/2 | \
{g}A4{GAG}A2|]
{g}f3/2g/2 |
{ag}a3/2g/2{a}fa{ef}e2c2 | \
{Gdc}d3/2c/2df{g}e2{g}A3/2B/2 | \
{g}c2{GdGe}cf/2{g}e2{gcd}c3/2B/2 |
{gAGAG}A2{gcd}ce{gcd}B2{gef}e3/2c/2 | \
{g}A2{GAG}A{d}c{gef}e2{gcd}ce | \
{gfg}f3/2e/2{g}fg{ag}a2g3/2f/2 |
{gef}ea{cd}ce{gef}e3/2d/2{g}G{d}B/2 | \
{g}A4{GAG}A2|]
